X:50
T:B050-  Busy Fame
Q:1/4=120
L:1/4
M:C|
K:G
d|B3/2c/2Ad|FABg|E3/2d/2 (e/2f/2)g|B3(e/2f/2)|\
d3/2B/2 (A/2B/2)(A/2G/2)|A(c/2d/2)e3/2f/2|g(f/2e/2)e3/2d/2|\
d3a|a3/2b/2 (a/2f/2)(e/2d/2)|gab3/2^d/2|eff3/2e/2|\
e3":s:"(e/4f/4g/2)|e(d/2B/2)d(e/2d/2)|e(e/4f/4g/2)f(e/2d/2)|\
(e/2f/2)(d/2B/2)A3/2G/2|G3|]

